src/images/Likes.svg

<svg width="34" height="34" viewBox="0 0 34 34" fill="none" xmlns="http://www.w3.org/2000/svg">
<rect width="34" height="34" rx="17" fill="black"/>
<path d="M18.705 8.86833L15.2484 8.86H15.2467C11.6017 8.86 8.7467 11.7158 8.7467 15.3617C8.7467 18.7767 11.4017 21.3667 14.9675 21.5033V24.6933C14.9675 24.7833 15.0042 24.9317 15.0675 25.0292C15.1859 25.2167 15.3875 25.3183 15.5942 25.3183C15.7092 25.3183 15.825 25.2867 15.9292 25.22C16.1492 25.08 21.3234 21.77 22.6692 20.6317C24.2542 19.29 25.2025 17.3233 25.205 15.3717V15.3575C25.2 11.7183 22.3467 8.86833 18.705 8.8675V8.86833ZM21.8609 19.6783C20.9159 20.4783 17.8092 22.5158 16.2175 23.5475V20.8917C16.2175 20.5467 15.9384 20.2667 15.5925 20.2667H15.2625C12.2125 20.2667 9.99754 18.2033 9.99754 15.3617C9.99754 12.4167 12.3042 10.11 15.2475 10.11L18.7034 10.1183H18.705C21.6484 10.1183 23.955 12.4233 23.9567 15.365C23.9542 16.9567 23.1717 18.5683 21.8617 19.6783H21.8609Z" fill="#6E767D"/>
</svg>

<svg xmlns="http://www.w3.org/2000/svg" viewBox="0 0 34 34"><defs><style>.cls-1{fill:#1d9bf0;opacity:0;}.cls-2{fill:#fff;}</style></defs><g id="Calque_2" data-name="Calque 2"><g id="Calque_1-2" data-name="Calque 1"><path class="cls-1" d="M17,0h0A17,17,0,0,1,34,17h0A17,17,0,0,1,17,34h0A17,17,0,0,1,0,17H0A17,17,0,0,1,17,0Z"/><path class="cls-2" d="M18.7,8.87H15.25a6.43,6.43,0,0,0-6.5,6.5A6.16,6.16,0,0,0,15,21.5v3.19a.66.66,0,0,0,.1.34.62.62,0,0,0,.86.19c.22-.14,5.39-3.45,6.74-4.59a7,7,0,0,0,2.53-5.26h0a6.42,6.42,0,0,0-6.5-6.49Zm3.16,10.81c-.94.8-4.05,2.84-5.64,3.87V20.89a.63.63,0,0,0-.63-.62h-.33A4.93,4.93,0,0,1,10,15.36a5.19,5.19,0,0,1,5.25-5.25H18.7A5.2,5.2,0,0,1,24,15.36a5.82,5.82,0,0,1-2.1,4.32Z"/></g></g></svg>
